X:1
T:Title
%%score 1 { ( 2 3 ) | ( 4 5 ) }
L:1/8
Q:1/4=106
M:4/4
K:Bb
V:1 treble nm="Akkordion"
V:2 bass nm="Grand Piano"
V:3 bass 
V:4 treble 
V:5 treble 
V:1
 F2 F2 B3 c | d2 d2 d4 | e2 e2 B3 c | d6 z2 | d2 c2 c3 d | c2 B2 B4 | c3 B A2 G2 | F6 z2 | %8
w: W.~Warren~Bentley * * *||||||||
 F2 F2 B3 c | d2 d2 d4 | e2 e2 B3 c | d6 z2 | e2 e2 f3 e | e3 d d4 | c3 c d2 c2 | B6 z2 | z8 | z8 | %18
w: ||||||||||
 z8 | z8 | z8 | z8 | z8 | z8 |] %24
w: ||||||
V:2
 z2[K:treble] B2 B2 B2 | z2 B2 B2 B2 | z2 B2 B2 B2 | z2[K:treble] B2 B2 B2 | z2 A2 A2 A2 | %5
 z2 [FB]2 [DFB]2 [FB]2 | z2 [EB]2 [CFA]2 [CGB]2 | [FA]6[K:bass] C,2 | z2[K:treble] B2 B2 B2 | %9
 z2 B2 B2 B2 | z2 B2 B2 B2 | z2[K:treble] B2 B2 B2 | z2 B2 B2 B2 | z2[K:treble] B2 B2 B2 | %14
 z2 A2[K:bass] z2 A2 | z2[K:treble] B2 B2 z2 | [Ge]3 [Ge] [Ge]2 z2 | [Fd]3 [Fd] [Fd]2 z2 | %18
 c3 c e2 d2 | c6 z2 | [DF]3 [DF] [FB]2 c2 | d3 d d2 z2 | [Bf]3 [Ge] [Fd]3 [Ec] | [DB]6 z2 |] %24
V:3
 B,,8[K:treble] | B,8 | E,8 | B,,8[K:treble] | F,8 | B,4 z4 | x8 | x6[K:bass] x2 | B,,8[K:treble] | %9
 B,8 | E,8 | B,,8[K:treble] | E,8 | B,,8[K:treble] | F,4[K:bass] F,,4 | B,,6[K:treble] z2 | x8 | %17
 x8 | x8 | x8 | x8 | x8 | x8 | x8 |] %24
V:4
 z2 [DF]2 [DF]2 [DF]2 | z2 [DF]2 [DF]2 [DF]2 | z2 [EG]2 [EG]2 [EG]2 | z2 [DF]2 [DF]2 [DF]2 | %4
 z2 [CE]2 [CE]2 [CE]2 | z2[K:bass] D2 z2 D2 | z2 C2 D,2 =E,2 | F,2 E,2 D,2 z2 | %8
 z2[K:treble] [DF]2 [DF]2 [DF]2 | z2 [DF]2 [DF]2 [DF]2 | z2 [EG]2 [EG]2 [EG]2 | %11
 z2 [DF]2 [DF]2 [DF]2 | z2 [EG]2 [EG]2 [EG]2 | z2 [DF]2 [DF]2 [DF]2 | z2 [CE]2 z2 [CE]2 | %15
 z2 [DF]2 [DF]2 z2 | [E,B,]3 [E,B,] [E,B,]2 z2 | [B,,B,]3 [B,,B,] [B,,B,]2 z2 | %18
 [F,A,F]3 [F,A,F] [F,CF]2 [F,B,F]2 | [F,A,F]6 z2 | [B,,B,]3 [B,,B,] [D,B,]2[K:treble] [F,A,F]2 | %21
 [B,F]3 [B,F] [B,F]2 z2 | [D,B,]3 [E,B,] [F,B,]3 [F,A,] | [B,,B,]6 z2 |] %24
V:5
 x8 | x8 | x8 | x8 | x8 | z4[K:bass] B,,4 | C,4 z4 | x8 | x2[K:treble] x6 | x8 | x8 | x8 | x8 | %13
 x8 | x8 | x8 | x8 | x8 | x8 | x8 | x6[K:treble] x2 | x8 | x8 | x8 |] %24

